X:518
T: EIN SCHAEFER TRAEGT SORGEN
N: E0508
O: Europa, Mitteleuropa, Deutschland, Schlesien, Hainau; Sueddeutschland
R: Liebes - Lied
M: 3/4
L: 1/4
K: Bb
F | Bdd | df
f | cee | df
F | Bdd | df
f | cee | dz
d | cze | d2
d | cfe | d2

